src/assets/logo.svg

<svg viewBox="198.72 457.91999999999996 682.5600000000001 157.67999999999998" xmlns="http://www.w3.org/2000/svg" data-name="Layer 1" id="Layer_1" style="max-height: 500px" width="682.5600000000001" height="157.67999999999998">
  <defs>
    <style>
      .cls-1 {
        fill: #231f20;
      }
    </style>
  </defs>
  <path d="m356.77,540c0,37.12-33.7,67.21-75.27,67.21s-75.27-30.09-75.27-67.21,33.7-67.21,75.27-67.21,75.27,30.09,75.27,67.21Zm-21.51,0c0-26.72-24.07-48.39-53.77-48.39s-53.77,21.67-53.77,48.39,24.07,48.39,53.77,48.39,53.77-21.67,53.77-48.39Z" class="cls-1"/>
  <path d="m469.75,585.7v18.82h-94.09v-129.04h21.51v110.22h72.59Z" class="cls-1"/>
  <path d="m595.53,604.52h-25.55l-56.75-61.94-6.42,5.44v56.5h-21.51v-129.04h21.51v39.04c0,2.74-.52,5.45-1.54,7.99l-2.48,6.2,2.66,1.06,1.21-3.03c1.3-3.26,3.39-6.15,6.06-8.42l50.54-42.85h29.17l-64.84,54.93,67.93,74.11Z" class="cls-1"/>
  <path d="m742.67,604.52h-23.27l-9.98-24.19h-69.96l-9.98,24.19h-23.27l53.23-129.04h29.99l53.23,129.04Zm-41.01-43.01l-24.12-58.48c-1.05-2.54-1.6-5.25-1.62-8l-.06-6.12-2.87.03.05,5.52c.03,2.88-.53,5.74-1.63,8.41l-24.19,58.64h54.44Z" class="cls-1"/>
  <path d="m823.42,566.88h-43.74v37.64h-21.51v-129.04h69.9c25.24,0,45.7,20.46,45.7,45.7,0,19.4-12.09,35.97-29.15,42.6,0,0-4.21,3.1-21.2,3.1Zm28.85-45.7c0-14.85-10.83-26.88-24.2-26.88h-48.39v53.77h48.39c13.37,0,24.2-12.04,24.2-26.88Z" class="cls-1"/>
</svg>

<svg style="max-height: 500px" xml:space="preserve" xmlns:xlink="http://www.w3.org/1999/xlink" xmlns="http://www.w3.org/2000/svg" version="1.1" viewBox="200.83507200000003 470.88 682.5600000000001 140.4" width="682.5600000000001" height="140.4">
    <path style="fill:rgb(152,76,60);fill-rule:nonzero;" d="M356.77,540C356.77,577.12 323.07,607.21 281.5,607.21C239.93,607.21 206.23,577.12 206.23,540C206.23,502.88 239.93,472.79 281.5,472.79C323.07,472.79 356.77,502.88 356.77,540ZM335.26,540C335.26,513.28 311.19,491.61 281.49,491.61C251.79,491.61 227.72,513.28 227.72,540C227.72,566.72 251.79,588.39 281.49,588.39C311.19,588.39 335.26,566.72 335.26,540Z"/>
    <path style="fill:rgb(152,76,60);fill-rule:nonzero;" d="M469.75,585.7L469.75,604.52L375.66,604.52L375.66,475.48L397.17,475.48L397.17,585.7L469.76,585.7L469.75,585.7Z"/>
    <path style="fill:rgb(152,76,60);fill-rule:nonzero;" d="M595.53,604.52L569.98,604.52L513.23,542.58L506.81,548.02L506.81,604.52L485.3,604.52L485.3,475.48L506.81,475.48L506.81,514.52C506.81,517.26 506.29,519.97 505.27,522.51L502.79,528.71L505.45,529.77L506.66,526.74C507.96,523.48 510.05,520.59 512.72,518.32L563.26,475.47L592.43,475.47L527.59,530.4L595.52,604.51L595.53,604.52Z"/>
    <path style="fill:rgb(152,76,60);fill-rule:nonzero;" d="M742.67,604.52L719.4,604.52L709.42,580.33L639.46,580.33L629.48,604.52L606.21,604.52L659.44,475.48L689.43,475.48L742.66,604.52L742.67,604.52ZM701.66,561.51L677.54,503.03C676.49,500.49 675.94,497.78 675.92,495.03L675.86,488.91L672.99,488.94L673.04,494.46C673.07,497.34 672.51,500.2 671.41,502.87L647.22,561.51L701.66,561.51Z"/>
    <path style="fill:rgb(152,76,60);fill-rule:nonzero;" d="M823.42,566.88L779.68,566.88L779.68,604.52L758.17,604.52L758.17,475.48L828.07,475.48C853.31,475.48 873.77,495.94 873.77,521.18C873.77,540.58 861.68,557.15 844.62,563.78C844.62,563.78 840.41,566.88 823.42,566.88ZM852.27,521.18C852.27,506.33 841.44,494.3 828.07,494.3L779.68,494.3L779.68,548.07L828.07,548.07C841.44,548.07 852.27,536.03 852.27,521.19L852.27,521.18Z"/>
</svg>
